X: 541
T: Guijie shaoshu
L: 1/8
M: 2/4
K: G
G> F E D [I:setbarnb 1]| 
G2A d | 
G> A d A | 
F ED2 | 
A> d A/ B/ A/ G/ | 
A D G3/ B/ | 
G D E/ D/ E | 
D4 |]

@@@ Tune index: 9415
